X: 16574
T: Hampstead Heath
R: jig
M: 6/8
K: Gmajor
dS|:B2 d D2 D|G2 G GAB|A2 d BAG|A2 D D2 d|
B2 d D2 D|G2 G GAB|A2 d de^c|d3 d2 [1 d:|2 A||
|:F2 A D2 d|BAG G2 G|E2 G CcB|c3 e2 e|
ABc d2 d|Bcd e2 e|edc BAG|AFD ABc|
.d.c.B .c.B.A|.B.A.G A2 D|G2 A BcB|A2 D D2 d|
B2 d D2 D|G2 G GAB|Adc BAG|G3 G2 [1 A:|2 dS||

